packages/calcite-ui-icons/icons/government-building-16.svg

<?xml version="1.0" encoding="UTF-8"?><svg id="icons" xmlns="http://www.w3.org/2000/svg" viewBox="0 0 16 16"><defs><style>.cls-1{fill:none;}.cls-2{fill-rule:evenodd;}</style></defs><path class="cls-2" d="M8,1L0,5h16L8,1ZM8,2.11798l3.76392,1.88202h-7.52783l3.76392-1.88202ZM1,7h1v5l-1,1v2h14v-2l-1-1v-5h1v-1H1v1ZM12,7h1v5h-1v-5ZM10,7h1v5h-1v-5ZM7,7h2v5h-2v-5ZM5,7h1v5h-1v-5ZM3,7h1v5h-1v-5ZM13.58582,13l.41418.41418v.58582H2v-.58582l.41418-.41418h11.17163Z"/><rect class="cls-1" width="16" height="16"/></svg>

<svg xmlns="http://www.w3.org/2000/svg" viewBox="0 0 16 16"><path d="M8 1L0 5h16L8 1zm0 1.118L11.764 4H4.236L8 2.118zM1 7h1v5l-1 1v2h14v-2l-1-1V7h1V6H1v1zm11 0h1v5h-1V7zm-2 0h1v5h-1V7zM7 7h2v5H7V7zM5 7h1v5H5V7zM3 7h1v5H3V7zm10.586 6l.414.414V14H2v-.586L2.414 13h11.172z" fill-rule="evenodd"/><path fill="none" d="M0 0h16v16H0z"/></svg>
